!! 00008] TT[TB
!! Eigene Aufnahme
!!!OTL: Fengyang huagu (2)
!!!ARE: Asia, China,Anhui, Fengyang
!! Ethnic Group: Han
!! III, 559 (2)
!!!SCT: C0173
!!!YEM: Copyright 1995, estate of Helmut Schaffrath.
**kern
*ICvox
*Ivox
*M4/4
*k[b-e-a-]
*E-:
{8b-
8g
8f
8g
2b-
=1
8g
8b-
8cc
8ee-
2b-}
=2
{8b-
4b-
8ee-
4cc
8b-
8g
=3
8f
8b-
8g
8f
2e-}
=4
{8e-
4e-
8c
4b-
8b-
8g
=5
8f
8f
8f
8g
2b-}
=6
{8b-
4b-
8ee-
4cc
8b-
8g
=7
8f
8b-
8g
8f
2e-}
=8
{4b-
16b-
16g
8f
8e-
8f
8g
8b-
=9
8f
8e-
8c
8f
2e-}
=10
{4b-
8g
8f
8e-
8c
4e-
=11
4b-
8g
8f
8e-
8c
4e-
=12
4b-
8g
8r
4b-
8g
8r}
=13
{8b-
8e-
8b-
8e-
8e-
8c
4e-
=14
8e-
8e-
8e-
8c
2e-}
==
!!!AGN: Xiaodiao, Blumentrommel, fengyang
!! Saengerin: Huang Bai. WDH nach Versingen der ersten Phrase.
!!    leicht variiert.
!!!ONB: ESAC (Essen Associative Code) Database: CHINA_042
!!!AMT: simple quadruple
!!!AIN: vox
!!!EED: Helmut Schaffrath
!!!EEV: 1.0
*-
